X: 1
T: G\aangl\aat efter Paul Dahlin
R: g\aangl\aat, snoa
M: 2/4
L: 1/16
Z: John Chambers <jc@trillian.mit.edu>
K: D
FG | \
"D"A2d2 "A"cAce | "D"d6 f2 |\
[1,3 "A"efed c2Bc | "D"B2A2 "A"AG :|\
[2,4 "A"efed c2A2 | "D"d6 :|
|: ef |\
"G"gfgb g2e2 | "D"fefa f2d2 | "A"edce a2c2 |\
[1,3 "D"d6 ef :|2,4 "D"d2"A"ec "D"d2 :|
